public/rronifer-logo.svg

<svg width="223" height="49" viewBox="0 0 223 49" fill="none" xmlns="http://www.w3.org/2000/svg">
<g clip-path="url(#clip0_109_24)">
<path d="M187.644 14.6878H191.271C193.122 17.5347 193.894 20.672 194.052 23.975H190.423C190.237 20.6794 189.503 17.5334 187.644 14.6878Z" fill="#ED7E23"/>
<path d="M198.249 14.6866H200.529V20.1911C200.099 18.2665 199.382 16.4209 198.249 14.6866ZM192.954 14.6866H196.595C198.454 17.5433 199.227 20.6918 199.386 24.0071H195.743C195.558 20.7004 194.82 17.5421 192.954 14.6866Z" fill="#ED7E23"/>
<path d="M75.2749 45.0549H0V45.7731H75.2749V45.0549Z" fill="#ED7E23"/>
<path d="M223 45.0549H147.725V45.7731H223V45.0549Z" fill="#ED7E23"/>
<path d="M22.1529 22.5287C23.7339 21.5237 24.9503 20.1355 25.8106 18.3617C26.671 16.5878 27.1036 14.6606 27.1036 12.5839C27.1036 8.81616 25.9454 5.89763 23.6338 3.81721C21.3222 1.73678 17.8709 0.697186 13.2799 0.697186H0V38.3377H10.6988V25.0566H12.6358L18.981 38.3377H30.7564L22.1529 22.5287ZM15.0204 15.4048C14.3714 16.0303 13.4579 16.3467 12.2761 16.3467H10.5023V9.67528H12.2761C14.7509 9.67528 15.987 10.7717 15.987 12.9585C15.987 13.9635 15.6644 14.7756 15.0204 15.4048Z" fill="white"/>
<path d="M223 38.3043H211.215L204.355 24.038H203.125V14.7422H204.36C204.38 14.7422 204.394 14.7422 204.413 14.7373C205.687 14.7138 206.706 13.6705 206.706 12.3911C206.706 11.0931 205.658 10.0449 204.36 10.0449H202.923V12.0104H191.815V10.0449H181.336V14.6693H185.96C187.816 17.5149 188.59 20.6584 188.748 23.9601H181.336V28.9542H191.815V26.9887H202.923V38.308H170.652V10.056H160.808V15.3245H166.691V24.6301H160.808V38.3389H150.105V0.698423H191.711V0.703365H205.001C209.595 0.703365 213.047 1.74172 215.363 3.8271C217.675 5.90381 218.829 8.831 218.829 12.5938C218.829 17.5062 217.694 19.0873 213.879 21.5101L223 38.3043Z" fill="white"/>
<path d="M148.628 0.698423H137.926V38.3389H148.628V0.698423Z" fill="white"/>
<path d="M102.894 38.3389V0.698423H113.809L125.908 22.0466V0.698423H136.448V38.3389H125.801L113.379 17.3134V38.3389H102.894Z" fill="white"/>
<path d="M95.7849 5.56635C92.0555 1.85545 87.1431 0 81.0476 0C74.9535 0 70.046 1.85545 66.3153 5.56635C62.5859 9.27724 60.7205 13.9103 60.7205 19.4668C60.7205 25.0949 62.5859 29.7626 66.3153 33.4735C70.0447 37.1844 74.9522 39.0398 81.0476 39.0398C87.1418 39.0398 92.0542 37.1844 95.7849 33.4735C99.5094 29.7626 101.375 25.0962 101.375 19.4668C101.375 13.9103 99.5107 9.27724 95.7849 5.56635ZM87.6622 26.4843C85.9798 28.3299 83.7733 29.2533 81.0489 29.2533C78.3232 29.2533 76.1216 28.3299 74.4355 26.4843C72.7531 24.6338 71.9076 22.2975 71.9076 19.4668C71.9076 16.6694 72.7531 14.3578 74.4355 12.5258C76.1228 10.6988 78.3244 9.78653 81.0489 9.78653C83.7746 9.78653 85.9798 10.7 87.6622 12.5258C89.3496 14.3566 90.1901 16.6694 90.1901 19.4668C90.1901 22.2975 89.3496 24.6338 87.6622 26.4843Z" fill="white"/>
<path d="M32.5896 38.3389V16.3455H43.2909H43.3342H45.0648C46.2478 16.3455 47.1625 16.0315 47.8078 15.4048C48.4531 14.7781 48.7757 13.9622 48.7757 12.9585C48.7757 10.7717 47.5395 9.67776 45.0648 9.67776H43.2909V9.68023H32.5896V0.698423H45.872C50.4605 0.698423 53.9106 1.73802 56.2234 3.81721C58.5363 5.8964 59.6921 8.8174 59.6921 12.5815C59.6921 14.6606 59.2619 16.5878 58.4015 18.3617C57.5412 20.1368 56.3223 21.5249 54.745 22.5287L63.3486 38.3377H51.5718L45.2267 25.0578H43.2909V38.3402H32.5896V38.3389Z" fill="white"/>
<path d="M83.8166 48.7065C83.3864 48.7065 83.0008 48.6348 82.6608 48.4889C82.3209 48.3443 82.0316 48.1453 81.7893 47.8906C81.5483 47.636 81.3641 47.3393 81.2368 46.9993C81.1095 46.6594 81.0464 46.296 81.0464 45.9078V45.893C81.0464 45.5197 81.1119 45.1637 81.2442 44.8237C81.3765 44.4838 81.5619 44.1834 81.8005 43.9251C82.0378 43.6655 82.3258 43.459 82.6596 43.3058C82.9946 43.1525 83.3667 43.0771 83.7758 43.0771C84.0045 43.0771 84.2122 43.0919 84.4013 43.1228C84.5904 43.1537 84.7672 43.1994 84.9304 43.2637C85.0935 43.3255 85.2468 43.4009 85.389 43.4924C85.5311 43.5839 85.6708 43.6865 85.8056 43.8002L85.4088 44.2662C85.3049 44.1735 85.1961 44.0895 85.0812 44.0141C84.9675 43.9399 84.8438 43.8756 84.7116 43.82C84.5793 43.7656 84.4347 43.7236 84.2752 43.6914C84.117 43.6605 83.9427 43.6457 83.7499 43.6457C83.4495 43.6457 83.1713 43.7063 82.9179 43.8249C82.6633 43.9448 82.4457 44.1043 82.264 44.3058C82.0823 44.5085 81.9401 44.7446 81.8363 45.0178C81.7325 45.2898 81.6806 45.5766 81.6806 45.8769V45.8942C81.6806 46.2193 81.7312 46.5222 81.8326 46.7954C81.934 47.071 82.0774 47.3096 82.264 47.5111C82.4507 47.7138 82.6757 47.8721 82.9402 47.9858C83.2047 48.0995 83.5026 48.1576 83.8339 48.1576C84.1454 48.1576 84.4384 48.1045 84.7128 47.9982C84.9872 47.8931 85.2184 47.7633 85.4051 47.6137V46.2601H83.7486V45.7088H85.9972V47.8795C85.7425 48.1069 85.431 48.3035 85.0602 48.4666C84.6943 48.6249 84.2789 48.7065 83.8166 48.7065Z" fill="white"/>
<path d="M95.1656 43.1685H97.5069C97.8443 43.1685 98.1423 43.2168 98.4055 43.3132C98.6664 43.4084 98.8827 43.5419 99.0545 43.7137C99.1893 43.8484 99.2931 44.0067 99.366 44.1884C99.439 44.3701 99.4736 44.5703 99.4736 44.7879V44.8027C99.4736 45.0302 99.439 45.2341 99.366 45.4134C99.2931 45.5914 99.1905 45.7471 99.0582 45.8794C98.926 46.0117 98.769 46.1205 98.5885 46.207C98.4055 46.2923 98.209 46.3528 97.9976 46.3899L99.6689 48.615H98.9136L97.3363 46.5H97.3215H95.78V48.615H95.1669V43.1685H95.1656ZM97.4562 45.9449C97.6589 45.9449 97.8456 45.9202 98.0174 45.8683C98.1892 45.8164 98.3363 45.7422 98.4612 45.647C98.586 45.5518 98.6849 45.4356 98.7541 45.2972C98.8246 45.16 98.8592 45.003 98.8592 44.825V44.8101C98.8592 44.4727 98.7368 44.2106 98.4933 44.0215C98.2486 43.8324 97.9049 43.7384 97.4636 43.7384H95.7787V45.9462H97.4562V45.9449Z" fill="white"/>
<path d="M111.096 48.7065C110.68 48.7065 110.302 48.6323 109.963 48.4815C109.625 48.3307 109.332 48.1279 109.09 47.8708C108.845 47.6137 108.657 47.3158 108.526 46.9771C108.395 46.6384 108.328 46.2812 108.328 45.9078V45.893C108.328 45.5197 108.396 45.1612 108.531 44.8188C108.666 44.4764 108.855 44.1772 109.098 43.9201C109.343 43.663 109.636 43.4578 109.978 43.3058C110.319 43.1525 110.699 43.0771 111.114 43.0771C111.528 43.0771 111.905 43.1512 112.245 43.302C112.585 43.4529 112.877 43.6556 113.119 43.9127C113.364 44.1698 113.552 44.469 113.683 44.8077C113.815 45.1476 113.881 45.5024 113.881 45.8757C113.887 45.8819 113.887 45.8868 113.881 45.893C113.881 46.2663 113.813 46.6223 113.678 46.966C113.543 47.3084 113.354 47.6075 113.111 47.8646C112.866 48.1218 112.573 48.327 112.232 48.479C111.888 48.6298 111.51 48.7065 111.096 48.7065ZM111.111 48.1391C111.421 48.1391 111.708 48.0797 111.97 47.9635C112.231 47.8473 112.456 47.6879 112.642 47.4864C112.829 47.2824 112.976 47.0476 113.081 46.7781C113.187 46.5086 113.24 46.2181 113.24 45.9078V45.893C113.24 45.5815 113.187 45.2898 113.081 45.0166C112.976 44.7446 112.825 44.5073 112.635 44.3046C112.442 44.1018 112.214 43.9424 111.954 43.8237C111.692 43.7038 111.405 43.6445 111.095 43.6445C110.783 43.6445 110.496 43.7038 110.234 43.82C109.973 43.9362 109.748 44.0969 109.562 44.2984C109.375 44.5011 109.228 44.736 109.123 45.0055C109.017 45.2749 108.963 45.5654 108.963 45.8757V45.893C108.963 46.2033 109.017 46.495 109.123 46.767C109.228 47.0389 109.379 47.2762 109.569 47.479C109.762 47.6817 109.989 47.8424 110.25 47.9623C110.514 48.0797 110.799 48.1391 111.111 48.1391Z" fill="white"/>
<path d="M125.133 48.699C124.796 48.699 124.489 48.6484 124.212 48.547C123.934 48.4456 123.696 48.2961 123.497 48.0958C123.296 47.8956 123.143 47.6483 123.033 47.3517C122.923 47.0574 122.87 46.7175 122.87 46.3331V43.1673H123.483V46.2948C123.483 46.8856 123.63 47.3393 123.922 47.6545C124.215 47.9722 124.624 48.1292 125.147 48.1292C125.651 48.1292 126.049 47.9784 126.346 47.678C126.64 47.3776 126.789 46.9289 126.789 46.3318V43.1661H127.403V46.2849C127.403 46.6854 127.349 47.034 127.24 47.3343C127.13 47.636 126.976 47.8869 126.776 48.0896C126.576 48.2924 126.339 48.4432 126.061 48.5445C125.786 48.6484 125.476 48.699 125.133 48.699Z" fill="white"/>
<path d="M136.638 43.1685H138.675C138.982 43.1685 139.261 43.2093 139.512 43.2897C139.763 43.37 139.979 43.485 140.157 43.6321C140.335 43.7792 140.473 43.9597 140.57 44.1723C140.666 44.3837 140.714 44.626 140.714 44.8954V44.9103C140.714 45.2069 140.658 45.4653 140.542 45.6853C140.428 45.9054 140.274 46.0908 140.08 46.2416C139.884 46.3924 139.657 46.5037 139.398 46.5803C139.139 46.6557 138.863 46.6928 138.573 46.6928H137.25V48.615H136.637V43.1685H136.638ZM138.602 46.1402C138.826 46.1402 139.029 46.1118 139.214 46.0549C139.398 45.9968 139.557 45.9165 139.69 45.8089C139.822 45.7026 139.924 45.5753 139.993 45.4295C140.064 45.2836 140.098 45.1192 140.098 44.9387V44.9239C140.098 44.5333 139.965 44.2378 139.696 44.0376C139.428 43.8373 139.075 43.7372 138.632 43.7372H137.251V46.1402H138.602Z" fill="white"/>
</g>
<defs>
<clipPath id="clip0_109_24">
<rect width="223" height="48.8276" fill="white"/>
</clipPath>
</defs>
</svg>

<svg xmlns="http://www.w3.org/2000/svg" width="223" height="49" fill="none"><g clip-path="url(#a)"><path fill="#ED7E23" d="M187.644 14.688h3.627c1.851 2.847 2.623 5.984 2.781 9.287h-3.629c-.186-3.296-.92-6.442-2.779-9.287M198.249 14.687h2.28v5.504c-.43-1.924-1.147-3.77-2.28-5.504m-5.295 0h3.641c1.859 2.856 2.632 6.005 2.791 9.32h-3.643c-.185-3.307-.923-6.465-2.789-9.32M75.275 45.055H0v.718h75.275zM223 45.055h-75.275v.718H223z"/><path fill="#fff" d="M22.153 22.529q2.368-1.507 3.658-4.167 1.291-2.662 1.293-5.778c0-3.768-1.159-6.686-3.47-8.767Q20.166.697 13.28.697H0v37.64h10.699v-13.28h1.937l6.345 13.28h11.775zm-7.133-7.124c-.649.625-1.562.942-2.744.942h-1.774V9.675h1.774q3.712.002 3.711 3.284c0 1.005-.323 1.817-.967 2.446M223 38.304h-11.785l-6.86-14.266h-1.23v-9.296h1.235c.02 0 .034 0 .053-.005a2.34 2.34 0 0 0 2.293-2.346 2.343 2.343 0 0 0-2.346-2.346h-1.437v1.965h-11.108v-1.965h-10.479v4.624h4.624c1.856 2.846 2.63 5.99 2.788 9.291h-7.412v4.994h10.479V26.99h11.108v11.319h-32.271V10.056h-9.844v5.269h5.883v9.305h-5.883V38.34h-10.703V.699h41.606v.004h13.29q6.89-.002 10.362 3.124c2.312 2.077 3.466 5.004 3.466 8.767 0 4.912-1.135 6.493-4.95 8.916zM148.628.698h-10.702v37.64h10.702zM102.894 38.339V.699h10.915l12.099 21.348V.698h10.54v37.64h-10.647l-12.422-21.025V38.34zM95.785 5.566Q90.19.001 81.048 0c-6.094 0-11.002 1.855-14.733 5.566q-5.594 5.566-5.594 13.9 0 8.442 5.594 14.008c3.73 3.71 8.637 5.566 14.733 5.566q9.14 0 14.737-5.566 5.588-5.565 5.59-14.007 0-8.335-5.59-13.9m-8.123 20.918c-1.682 1.846-3.889 2.77-6.613 2.77-2.726 0-4.927-.924-6.614-2.77q-2.525-2.774-2.527-7.017.002-4.196 2.528-6.941c1.687-1.827 3.888-2.74 6.613-2.74q4.089 0 6.613 2.74c1.688 1.83 2.528 4.143 2.528 6.94 0 2.831-.84 5.168-2.528 7.018"/><path fill="#fff" d="M32.59 38.339V16.346h12.474q1.776 0 2.744-.941t.968-2.446q0-3.28-3.711-3.281H43.29v.002H32.59V.698h13.282q6.883 0 10.351 3.12 3.47 3.118 3.47 8.763 0 3.12-1.291 5.78-1.29 2.663-3.657 4.168l8.604 15.809H51.572l-6.345-13.28H43.29V38.34H32.59zM83.817 48.707q-.645 0-1.156-.218a2.6 2.6 0 0 1-.872-.598 2.6 2.6 0 0 1-.552-.892 3.1 3.1 0 0 1-.19-1.091v-.015a2.92 2.92 0 0 1 .754-1.968q.357-.39.859-.62a2.65 2.65 0 0 1 1.116-.228q.342 0 .625.046a2.6 2.6 0 0 1 .988.37q.214.136.417.307l-.397.466a3 3 0 0 0-.328-.252 2.3 2.3 0 0 0-.37-.194 2.4 2.4 0 0 0-.436-.129 2.7 2.7 0 0 0-.525-.045q-.451 0-.832.179-.382.18-.654.48a2.3 2.3 0 0 0-.428.713 2.4 2.4 0 0 0-.155.859v.017q0 .49.152.901.151.414.431.716.28.304.676.475.398.171.894.172.466 0 .879-.16.411-.159.692-.384V46.26H83.75v-.551h2.248v2.17a3.5 3.5 0 0 1-.937.588q-.55.239-1.243.24M95.166 43.169h2.34q.505 0 .9.144.39.143.648.4a1.4 1.4 0 0 1 .312.475q.109.273.108.6v.015q0 .341-.108.61a1.4 1.4 0 0 1-.308.466q-.198.2-.47.328-.273.128-.59.183l1.67 2.225h-.754L97.336 46.5H95.78v2.115h-.613zm2.29 2.776q.304 0 .561-.077.258-.078.444-.221a1 1 0 0 0 .293-.35q.105-.205.105-.472v-.015q0-.506-.366-.788-.367-.285-1.03-.284H95.78v2.208h1.677zM111.096 48.707q-.624 0-1.133-.226a2.69 2.69 0 0 1-1.437-1.504 3 3 0 0 1-.198-1.07v-.014q0-.56.203-1.074t.567-.899a2.74 2.74 0 0 1 2.016-.843q.621 0 1.131.225a2.67 2.67 0 0 1 1.438 1.506q.198.509.198 1.068.009.008 0 .017 0 .559-.203 1.073a2.8 2.8 0 0 1-.567.899 2.7 2.7 0 0 1-.879.614q-.516.226-1.136.227m.015-.568q.466-.001.859-.175.392-.175.672-.478a2.2 2.2 0 0 0 .439-.708q.159-.405.159-.87v-.015a2.4 2.4 0 0 0-.159-.876 2.2 2.2 0 0 0-.446-.712 2.2 2.2 0 0 0-.681-.481 2.04 2.04 0 0 0-.859-.18 2.1 2.1 0 0 0-.861.176 2 2 0 0 0-.672.478 2.2 2.2 0 0 0-.439.707q-.16.405-.16.87v.018q0 .465.16.874t.446.712q.29.304.681.483.395.177.861.177M125.133 48.699q-.505 0-.921-.152a1.92 1.92 0 0 1-1.179-1.195 2.9 2.9 0 0 1-.163-1.019v-3.166h.613v3.128q0 .886.439 1.36.44.475 1.225.474.755 0 1.199-.451.442-.451.443-1.346v-3.166h.614v3.119q0 .6-.163 1.05a2.1 2.1 0 0 1-.464.755q-.299.303-.715.454a2.6 2.6 0 0 1-.928.155M136.638 43.169h2.037q.46 0 .837.12.377.122.645.343a1.5 1.5 0 0 1 .413.54q.144.319.144.723v.015q.001.445-.172.775-.171.33-.462.557-.294.224-.682.338a3 3 0 0 1-.825.113h-1.323v1.922h-.613v-5.446zm1.964 2.971q.335 0 .612-.085t.476-.246a1.08 1.08 0 0 0 .408-.87v-.015q0-.586-.402-.886-.4-.3-1.064-.3h-1.381v2.402z"/></g><defs><clipPath id="a"><path fill="#fff" d="M0 0h223v48.828H0z"/></clipPath></defs></svg>
